X: 2
T: the Hamburg Waltz
R: waltz
B: Bland & Weller, eds. "24 Favorite Country Dances, Hornpipes and Reels", 1803, London p.1 #2
S: http://imslp.org/wiki/24_Favorite_Country_Dances,_Hornpipes_and_Reels_(Various)
M: 3/8
L: 1/16
Z: 2012 John Chambers <jc:trillian.mit.edu>
K: A
E |\
AGABc2 | cBcde2 | fefga2 | e4cA |\
d2fdB2 | c2ecA2 | B2dBG2 | A4 :|
|:\
E2dBdB | E2cAcA | E2BGBG | AGABA2 |\
E2dBdB | E2cAcA | E2BGBG | A4 :|
%%begintext align
%% Set & hands across, back again
%% down the middle up again &
%% Allemand .
%%endtext
